X:1
T:All the trees they are so high
T:Taken down from Jas. Parsons, Sept. 1888, by S.B.G. again 1889 by H.Fl. Sheppard.
%%VWML:SBG-1-1-20-2
F:http://www.vwml.org/record/SBG/1/1/20
Z:Original Sibleius Transcription by Martin and Shan GraebeL:1/8
M:6/8
I:linebreak $
K:Bb
D/ D/ | G2 G G2 A | B3- B2 A/ A/ | G2 D E2 E | D3- D2 F | F2 G A2 B |$ d2 d c2 B | A2 G A2 A | 
D3- D2 B/ c/ | d3- d2 (3d/e/ d/ | d3- d2 c/ B/ | A2 G G2 A |$ (A D3) z B/ c/ | d2 d c2 B | 
G3- G2 (3F/G/ A/ | A3- d2 (3c/d/e/ | !fermata!d3 z2  |] 
T:Taken down from Roger Hannaford, May 1890 by H.Fl.S.
L:1/8
M:4/4
I:linebreak $
K:G
D2 | G2 G G GABc | AFDD D2 D2 | AAAA ABcd | BGGG G2 B,C |$ DDBc dBcB | cAGF D2 DE | =FFED E2 DC | 
D2 G4  |]
T:Taken down from Matthew Baker, Sept. 1890, by F.W.B.  
N:[Time sig. in mss. given as 6/8 – Ed.]
%%score ( 1 2 )
L:1/8
M:4/4
I:linebreak $
K:G
D | G2 B>G A2 c>A | G>ED>C B,3 _B, | EDEG A2 (3cBA | G>ED>B, D3 D | G2 BG A2 [cd][Ac] |$ BG GE E2 B,C | 
DAGE C2 B,C | D2 G2 z2 D>D | E2 GE D2 B,C | D2 G2 z2 z  |] 
T:Irish version, sent me by Mary O’Bryan, 
T:Abbey View, Cahir, Tipperary. Practically same as Roger Hannaford’s air.
L:1/8
M:4/4
I:linebreak $
K:G
D2 | G2 G G G2 AB | GAFD D2 D2 | BcdB GcBG | AGFE D2 B2 |$ cdcB GccB | GAGF DC BB | 
AG ED B,C B,C | (C2 D2) G2  |] 

